src/Pure-Dark/16/symbolic/categories/applications-internet-symbolic.svg

<svg width="16.002" height="15.997" version="1.1" xmlns="http://www.w3.org/2000/svg">
 <path d="m9.5 1a4.5 4.5 0 0 0-3.7891 2.0742 3.5 3.5 0 0 0-0.71094-0.074219 3.5 3.5 0 0 0-3.5 3.5 3.5 3.5 0 0 0 0.0039062 0.1582c-0.91421 0.86983-1.5039 2.1454-1.5039 3.5918 0 2.6315 1.9109 4.75 4.2852 4.75h7.4297c2.3743 0 4.2852-2.1185 4.2852-4.75 0-1.7216-0.82625-3.2101-2.0566-4.043a4.5 4.5 0 0 0 0.056641-0.70703 4.5 4.5 0 0 0-4.5-4.5zm0 1a3.5 3.5 0 0 1 0.14844 0.0039062 3.5 3.5 0 0 1 0.0097656 0 3.5 3.5 0 0 1 0.30469 0.027344 3.5 3.5 0 0 1 0.10156 0.015625 3.5 3.5 0 0 1 0.052735 0.0078125 3.5 3.5 0 0 1 0.007812 0.0019531 3.5 3.5 0 0 1 0.14648 0.029297 3.5 3.5 0 0 1 0.007813 0.0019531 3.5 3.5 0 0 1 0.29688 0.082031 3.5 3.5 0 0 1 0.007812 0.0019531 3.5 3.5 0 0 1 0.14062 0.048828 3.5 3.5 0 0 1 0.007813 0.0039063 3.5 3.5 0 0 1 0.13672 0.054688 3.5 3.5 0 0 1 0.007812 0.0039062 3.5 3.5 0 0 1 0.13672 0.060547 3.5 3.5 0 0 1 0.007812 0.0039062 3.5 3.5 0 0 1 0.13281 0.068359 3.5 3.5 0 0 1 0.005859 0.0039063 3.5 3.5 0 0 1 0.13086 0.072266 3.5 3.5 0 0 1 0.027343 0.017578 3.5 3.5 0 0 1 0.10547 0.066406 3.5 3.5 0 0 1 0.007813 0.0039062 3.5 3.5 0 0 1 0.12109 0.085938 3.5 3.5 0 0 1 0.125 0.09375 3.5 3.5 0 0 1 0.007813 0.0058594 3.5 3.5 0 0 1 0.23047 0.20117 3.5 3.5 0 0 1 0.005859 0.0058593 3.5 3.5 0 0 1 0.10547 0.10547 3.5 3.5 0 0 1 0.005859 0.0058594 3.5 3.5 0 0 1 0.20117 0.23047 3.5 3.5 0 0 1 0.005859 0.0078125 3.5 3.5 0 0 1 0.09375 0.125 3.5 3.5 0 0 1 0.085938 0.12109 3.5 3.5 0 0 1 0.070312 0.11328 3.5 3.5 0 0 1 0.013672 0.021484 3.5 3.5 0 0 1 0.003906 0.0058594 3.5 3.5 0 0 1 0.072266 0.13086 3.5 3.5 0 0 1 0.003906 0.0058593 3.5 3.5 0 0 1 0.06836 0.13281 3.5 3.5 0 0 1 0.003906 0.0078125 3.5 3.5 0 0 1 0.060547 0.13672 3.5 3.5 0 0 1 0.003906 0.0078125 3.5 3.5 0 0 1 0.054688 0.13672 3.5 3.5 0 0 1 0.003906 0.0078125 3.5 3.5 0 0 1 0.048828 0.14062 3.5 3.5 0 0 1 0.001953 0.0078125 3.5 3.5 0 0 1 0.042969 0.14453 3.5 3.5 0 0 1 0.001953 0.0078125 3.5 3.5 0 0 1 0.037109 0.14453 3.5 3.5 0 0 1 0.001953 0.0078125 3.5 3.5 0 0 1 0.029297 0.14648 3.5 3.5 0 0 1 0.001953 0.0078125 3.5 3.5 0 0 1 0.007813 0.052734 3.5 3.5 0 0 1 0.015625 0.10156 3.5 3.5 0 0 1 0.017578 0.14844 3.5 3.5 0 0 1 0 0.0078125 3.5 3.5 0 0 1 0.009766 0.14844 3.5 3.5 0 0 1 0.003906 0.1582 3.5 3.5 0 0 1-0.001953 0.085938 3.5 3.5 0 0 1-0.001953 0.072266 3.5 3.5 0 0 1-0.001953 0.019531 3.5 3.5 0 0 1-0.25 1.1328c1.0534 0.45618 1.846 1.3829 2.1328 2.5156 0.020447 0.079271 0.039462 0.15892 0.054688 0.24023 0.010643 0.057931 0.021337 0.11497 0.029297 0.17383 0.023004 0.16668 0.039062 0.33622 0.039062 0.50977 0 2.0775-1.6725 3.75-3.75 3.75h-6.5c-2.0775 0-3.75-1.6725-3.75-3.75 0-0.2032 0.021761-0.39968 0.052734-0.59375 0.0057586-0.034883 0.012792-0.068988 0.019531-0.10352 0.18447-0.97714 0.74086-1.8194 1.5234-2.3691a2.5 2.5 0 0 1-0.095703-0.68359 2.5 2.5 0 0 1 0.11133-0.73242 2.5 2.5 0 0 1 0.14258-0.36328 2.5 2.5 0 0 1 0.0039063-0.0058594 2.5 2.5 0 0 1 0.20312-0.34375 2.5 2.5 0 0 1 0.25586-0.30469 2.5 2.5 0 0 1 0.089844-0.087891 2.5 2.5 0 0 1 0.0058594-0.0058594 2.5 2.5 0 0 1 0.019531-0.015625 2.5 2.5 0 0 1 0.18555-0.15234 2.5 2.5 0 0 1 0.10156-0.072266 2.5 2.5 0 0 1 0.0078125-0.0039062 2.5 2.5 0 0 1 0.10547-0.066406 2.5 2.5 0 0 1 0.0078125-0.0039062 2.5 2.5 0 0 1 0.10742-0.060547 2.5 2.5 0 0 1 0.0097657-0.0039062 2.5 2.5 0 0 1 0.11914-0.056641 2.5 2.5 0 0 1 0.11328-0.048828 2.5 2.5 0 0 1 0.0039062-0.0019531 2.5 2.5 0 0 1 0.03125-0.0097657 2.5 2.5 0 0 1 0.099609-0.035156 2.5 2.5 0 0 1 0.11914-0.037109 2.5 2.5 0 0 1 0.0078125-0.0019531 2.5 2.5 0 0 1 0.12109-0.029297 2.5 2.5 0 0 1 0.0078126-0.0019531 2.5 2.5 0 0 1 0.029297-0.0058594 2.5 2.5 0 0 1 0.10156-0.017578 2.5 2.5 0 0 1 0.13281-0.017578 2.5 2.5 0 0 1 0.12305-0.0097657 2.5 2.5 0 0 1 0.0078125 0 2.5 2.5 0 0 1 0.125-0.0039062 2.5 2.5 0 0 1 0.13086 0.0039062 2.5 2.5 0 0 1 0.0019531 0 2.5 2.5 0 0 1 0.064453 0.0039063 2.5 2.5 0 0 1 0.0078125 0 2.5 2.5 0 0 1 0.046875 0.0039063 4.5 4.5 0 0 0 0 0.0019531 2.5 2.5 0 0 1 0.95703 0.29883 3.5 3.5 0 0 1 0.4707-0.88281 3.5 3.5 0 0 0-0.0019531 0 3.5 3.5 0 0 1 0.17383-0.2168 3.5 3.5 0 0 1 0.023438-0.027344 3.5 3.5 0 0 1 0.091797-0.099609 3.5 3.5 0 0 1 0.015625-0.017578 3.5 3.5 0 0 1 0.095703-0.09375 3.5 3.5 0 0 1 0.015625-0.015625 3.5 3.5 0 0 1 0.078125-0.070312 3.5 3.5 0 0 1 0.029297-0.027344 3.5 3.5 0 0 1 0.11328-0.09375 3.5 3.5 0 0 1 0.125-0.095703 3.5 3.5 0 0 1 0.017578-0.013672 3.5 3.5 0 0 1 0.24609-0.16016 3.5 3.5 0 0 1 0.27539-0.15039 3.5 3.5 0 0 1 0.019531-0.0097656 3.5 3.5 0 0 1 0.125-0.054688 3.5 3.5 0 0 1 0.14453-0.058594 3.5 3.5 0 0 1 0.019531-0.0078125 3.5 3.5 0 0 1 0.048828-0.017578 3.5 3.5 0 0 1 0.10156-0.033203 3.5 3.5 0 0 1 0.13086-0.039062 3.5 3.5 0 0 1 0.019531-0.0058593 3.5 3.5 0 0 1 0.066406-0.015625 3.5 3.5 0 0 1 0.066406-0.017578 3.5 3.5 0 0 1 0.2207-0.042969 3.5 3.5 0 0 1 0.10938-0.015625 3.5 3.5 0 0 1 0.29102-0.025391 3.5 3.5 0 0 1 0.1582-0.0039062z" fill="#f2f2f2" stroke-width="0"/>
</svg>

<?xml version="1.0" encoding="UTF-8" standalone="no"?>
<svg
   width="16"
   height="16"
   version="1.1"
   id="svg1"
   sodipodi:docname="applications-internet-symbolic.svg"
   inkscape:version="1.4.2 (ebf0e940d0, 2025-05-08)"
   xmlns:inkscape="http://www.inkscape.org/namespaces/inkscape"
   xmlns:sodipodi="http://sodipodi.sourceforge.net/DTD/sodipodi-0.dtd"
   xmlns="http://www.w3.org/2000/svg"
   xmlns:svg="http://www.w3.org/2000/svg">
  <defs
     id="defs1">
    <style
       id="current-color-scheme"
       type="text/css">
        .ColorScheme-Text { color:#f2f2f2; }
        .ColorScheme-NeutralText { color:#f67400; }
        .ColorScheme-PositiveText { color:#37c837; }
        .ColorScheme-NegativeText { color:#f44336; }
        .ColorScheme-Highlight { color:#3daee9; }
     </style>
  </defs>
  <sodipodi:namedview
     id="namedview1"
     pagecolor="#ffffff"
     bordercolor="#000000"
     borderopacity="0.25"
     inkscape:showpageshadow="2"
     inkscape:pageopacity="0.0"
     inkscape:pagecheckerboard="0"
     inkscape:deskcolor="#d1d1d1"
     inkscape:zoom="49.696819"
     inkscape:cx="7.9984999"
     inkscape:cy="7.9984999"
     inkscape:window-width="1920"
     inkscape:window-height="1010"
     inkscape:window-x="0"
     inkscape:window-y="0"
     inkscape:window-maximized="1"
     inkscape:current-layer="svg1" />
  <path
     id="path1"
     style="fill:currentColor"
     class="ColorScheme-Text"
     d="M 9.5,1 A 4.5,4.5 0 0 0 5.7109375,3.0742188 3.5,3.5 0 0 0 5,3 3.5,3.5 0 0 0 1.5,6.5 3.5,3.5 0 0 0 1.5039062,6.6582031 C 0.58969625,7.5280331 0,8.8036 0,10.25 0,12.8815 1.9108562,15 4.2851562,15 H 11.714844 C 14.089144,15 16,12.8815 16,10.25 16,8.5284 15.173709,7.0399312 13.943359,6.2070312 A 4.5,4.5 0 0 0 14,5.5 4.5,4.5 0 0 0 9.5,1 Z m 0,1 a 3.5,3.5 0 0 1 0.1484375,0.00391 3.5,3.5 0 0 1 0.00977,0 3.5,3.5 0 0 1 0.3046875,0.027344 3.5,3.5 0 0 1 0.101562,0.015625 3.5,3.5 0 0 1 0.05274,0.00781 3.5,3.5 0 0 1 0.0078,0.00195 3.5,3.5 0 0 1 0.146484,0.029297 3.5,3.5 0 0 1 0.0078,0.00195 3.5,3.5 0 0 1 0.296875,0.082031 3.5,3.5 0 0 1 0.0078,0.00195 3.5,3.5 0 0 1 0.140625,0.048828 3.5,3.5 0 0 1 0.0078,0.00391 3.5,3.5 0 0 1 0.136719,0.054687 3.5,3.5 0 0 1 0.0078,0.00391 3.5,3.5 0 0 1 0.136719,0.060547 3.5,3.5 0 0 1 0.0078,0.00391 3.5,3.5 0 0 1 0.132813,0.068359 3.5,3.5 0 0 1 0.0059,0.00391 3.5,3.5 0 0 1 0.13086,0.072266 3.5,3.5 0 0 1 0.02734,0.017578 3.5,3.5 0 0 1 0.105469,0.066406 3.5,3.5 0 0 1 0.0078,0.00391 3.5,3.5 0 0 1 0.121093,0.085937 3.5,3.5 0 0 1 0.125,0.09375 3.5,3.5 0 0 1 0.0078,0.00586 3.5,3.5 0 0 1 0.230469,0.2011719 3.5,3.5 0 0 1 0.0059,0.00586 3.5,3.5 0 0 1 0.105469,0.1054688 3.5,3.5 0 0 1 0.0059,0.00586 3.5,3.5 0 0 1 0.201172,0.2304687 3.5,3.5 0 0 1 0.0059,0.00781 3.5,3.5 0 0 1 0.09375,0.125 3.5,3.5 0 0 1 0.08594,0.1210938 3.5,3.5 0 0 1 0.07031,0.1132812 3.5,3.5 0 0 1 0.01367,0.021484 3.5,3.5 0 0 1 0.0039,0.00586 3.5,3.5 0 0 1 0.07227,0.1308594 3.5,3.5 0 0 1 0.0039,0.00586 3.5,3.5 0 0 1 0.06836,0.1328125 3.5,3.5 0 0 1 0.0039,0.00781 3.5,3.5 0 0 1 0.06055,0.1367188 3.5,3.5 0 0 1 0.0039,0.00781 3.5,3.5 0 0 1 0.05469,0.1367187 3.5,3.5 0 0 1 0.0039,0.00781 3.5,3.5 0 0 1 0.04883,0.140625 3.5,3.5 0 0 1 0.002,0.00781 3.5,3.5 0 0 1 0.04297,0.1445313 3.5,3.5 0 0 1 0.002,0.00781 3.5,3.5 0 0 1 0.03711,0.1445312 3.5,3.5 0 0 1 0.002,0.00781 3.5,3.5 0 0 1 0.0293,0.1464844 3.5,3.5 0 0 1 0.002,0.00781 3.5,3.5 0 0 1 0.0078,0.052734 3.5,3.5 0 0 1 0.01563,0.1015625 3.5,3.5 0 0 1 0.01758,0.1484375 3.5,3.5 0 0 1 0,0.00781 3.5,3.5 0 0 1 0.0098,0.1484375 A 3.5,3.5 0 0 1 13,5.5 3.5,3.5 0 0 1 12.998,5.585937 3.5,3.5 0 0 1 12.996,5.658203 3.5,3.5 0 0 1 12.994,5.677734 3.5,3.5 0 0 1 12.744,6.8105465 c 1.0534,0.45618 1.846012,1.382925 2.132812,2.515625 0.02045,0.079271 0.03946,0.1589244 0.05469,0.2402343 0.01064,0.057931 0.02134,0.1149682 0.0293,0.1738282 C 14.983942,9.9069144 15,10.07645 15,10.25 15,12.3275 13.3275,14 11.25,14 H 4.75 C 2.6725,14 1,12.3275 1,10.25 1,10.0468 1.0217614,9.85032 1.0527344,9.65625 1.058493,9.621367 1.0655266,9.5872664 1.0722656,9.5527344 1.2567356,8.5755944 1.8131631,7.7332938 2.5957031,7.1835938 A 2.5,2.5 0 0 1 2.5,6.5 2.5,2.5 0 0 1 2.6113281,5.7675781 2.5,2.5 0 0 1 2.7539062,5.4042969 a 2.5,2.5 0 0 1 0.00391,-0.00586 2.5,2.5 0 0 1 0.203125,-0.34375 A 2.5,2.5 0 0 1 3.2167969,4.75 2.5,2.5 0 0 1 3.3066406,4.6621094 2.5,2.5 0 0 1 3.3125,4.65625 2.5,2.5 0 0 1 3.3320312,4.640625 2.5,2.5 0 0 1 3.5175781,4.4882812 a 2.5,2.5 0 0 1 0.1015625,-0.072266 2.5,2.5 0 0 1 0.00781,-0.00391 2.5,2.5 0 0 1 0.1054688,-0.066406 2.5,2.5 0 0 1 0.00781,-0.00391 2.5,2.5 0 0 1 0.1074218,-0.060547 2.5,2.5 0 0 1 0.00977,-0.00391 A 2.5,2.5 0 0 1 3.9765625,4.2207031 2.5,2.5 0 0 1 4.0898438,4.171875 2.5,2.5 0 0 1 4.09375,4.1699219 2.5,2.5 0 0 1 4.125,4.1601562 2.5,2.5 0 0 1 4.2246094,4.125 2.5,2.5 0 0 1 4.34375,4.0878906 a 2.5,2.5 0 0 1 0.00781,-0.00195 2.5,2.5 0 0 1 0.1210937,-0.029297 2.5,2.5 0 0 1 0.00781,-0.00195 2.5,2.5 0 0 1 0.029297,-0.00586 2.5,2.5 0 0 1 0.1015625,-0.017578 2.5,2.5 0 0 1 0.1328125,-0.017578 2.5,2.5 0 0 1 0.1230469,-0.00977 2.5,2.5 0 0 1 0.00781,0 A 2.5,2.5 0 0 1 5,4 a 2.5,2.5 0 0 1 0.1308594,0.00391 2.5,2.5 0 0 1 0.00195,0 2.5,2.5 0 0 1 0.064453,0.00391 2.5,2.5 0 0 1 0.00781,0 2.5,2.5 0 0 1 0.046875,0.00391 4.5,4.5 0 0 0 0,0.00195 2.5,2.5 0 0 1 0.9570313,0.2988281 3.5,3.5 0 0 1 0.4707031,-0.8828125 3.5,3.5 0 0 0 -0.00195,0 3.5,3.5 0 0 1 0.1738281,-0.2167969 3.5,3.5 0 0 1 0.023437,-0.027344 3.5,3.5 0 0 1 0.091797,-0.099609 3.5,3.5 0 0 1 0.015625,-0.017578 3.5,3.5 0 0 1 0.095703,-0.09375 3.5,3.5 0 0 1 0.015625,-0.015625 3.5,3.5 0 0 1 0.078125,-0.070312 3.5,3.5 0 0 1 0.029297,-0.027344 3.5,3.5 0 0 1 0.1132812,-0.09375 3.5,3.5 0 0 1 0.125,-0.095703 3.5,3.5 0 0 1 0.017578,-0.013672 3.5,3.5 0 0 1 0.2460938,-0.1601562 3.5,3.5 0 0 1 0.2753906,-0.1503907 3.5,3.5 0 0 1 0.019531,-0.00977 3.5,3.5 0 0 1 0.125,-0.054687 3.5,3.5 0 0 1 0.1445312,-0.058594 3.5,3.5 0 0 1 0.019531,-0.00781 3.5,3.5 0 0 1 0.048828,-0.017578 3.5,3.5 0 0 1 0.1015625,-0.033203 3.5,3.5 0 0 1 0.1308594,-0.039063 3.5,3.5 0 0 1 0.019531,-0.00586 3.5,3.5 0 0 1 0.066406,-0.015625 3.5,3.5 0 0 1 0.066406,-0.017578 3.5,3.5 0 0 1 0.2207031,-0.042969 3.5,3.5 0 0 1 0.109375,-0.015625 A 3.5,3.5 0 0 1 9.3417969,2.0039062 3.5,3.5 0 0 1 9.5,2 Z" />
</svg>
